!!!COM:	Bach, Johann Sebastian
!!!CDT:	1685/02/21/-1750/07/28/
!!!OTL@@DE:	Freu dich sehr, o meine Seele
!!!SCT:	BWV 39/7
!!!PC#:	67
!!!AGN:	chorale
**kern	**kern	**kern	**kern
*ICvox	*ICvox	*ICvox	*ICvox
*Ibass	*Itenor	*Ialto	*Isoprn
*I"Bass	*I"Tenor	*I"Alto	*I"Soprano
*>[A,A,B]	*>[A,A,B]	*>[A,A,B]	*>[A,A,B]
*>norep[A,B]	*>norep[A,B]	*>norep[A,B]	*>norep[A,B]
*>A	*>A	*>A	*>A
*	*oclefC4	*oclefC3	*oclefC1
*clefF4	*clefGv2	*clefG2	*clefG2
*k[f#]	*k[f#]	*k[f#]	*k[f#]
*G:	*G:	*G:	*G:
*M4/4	*M4/4	*M4/4	*M4/4
*met(c)	*met(c)	*met(c)	*met(c)
*MM100	*MM100	*MM100	*MM100
=1-	=1-	=1-	=1-
4G	4B	4d	4g
4F#	4A	4d	4a
4G	4G	4d	4b
4D	4F#	4d	4a
=2	=2	=2	=2
4E	4G	8dL	4g
.	.	8c#J	.
8F#L	4A	4d	4f#
8GJ	.	.	.
8AL	8AL	4c#	4e
8AAJ	8GJ	.	.
4D;	4F#;	4A;	4d;
=3	=3	=3	=3
4E	4B	4e	4g
4F#	4A	4d	4a
4G	8GL	4d	4b
.	8F#J	.	.
4E	4G	4cnX	4cc
=4	=4	=4	=4
8DL	4G	4d	4b
8CJ	.	.	.
4D	4F#	8dL	4a
.	.	8cJ	.
2GG;	2D;	2B;	2g;
=5:|!	=5:|!	=5:|!	=5:|!
*>B	*>B	*>B	*>B
4GG	4d	4g	4b
4AA	4c	8f#L	4cc
.	.	8eJ	.
4BB	8F#L	8dL	4dd
.	8G#J	16eL	.
.	.	16fJJ	.
8CL	4A	4e	4cc
8DJ	.	.	.
=6	=6	=6	=6
8EL	4GnX	4e	4b
8DJ	.	.	.
4C	4c	4e	4a
2BB;	2F#;	2d#;	2b;
=7	=7	=7	=7
4BB	8GL	4dnX	4dd
.	8AJ	.	.
4GG	4B	4g	4dd
4C	8cL	4g	4ee
.	8BJ	.	.
4D	4A	4f#	4dd
=8	=8	=8	=8
8EL	8GL	4e	4cc
8F#J	8AJ	.	.
4G	8BL	8dL	4b
.	8c#J	8eJ	.
2D;	2d;	2f#;	2a;
=9	=9	=9	=9
4G	8dL	4g	8bL
.	8cnXJ	.	8ccJ
4GG	4B	4g	4dd
4AA	4A	8gL	4cc
.	.	8f#J	.
4BB	4D	8gL	8bL
.	.	8f#J	8aJ
=10	=10	=10	=10
8CL	4E	8eL	4g
8BBJ	.	8dJ	.
4AA	4F#	4c	4a
8GGL	4G	8BL	2b
8AAJ	.	8c#J	.
4BB	4F#	4d#	.
=11	=11	=11	=11
2EE;	2E;	2e;	2g;
4E	4G	4e	8bL
.	.	.	8ccJ
4BB	4G#	4f	4dd
=12	=12	=12	=12
4C	4A	8eL	4cc
.	.	8f#XJ	.
4C#	4E	4g	4b
8DL	4F#	8f#L	4a
8C	.	8eJ	.
8BB	4GnX	4d	4b
8GGJ	.	.	.
=13	=13	=13	=13
2D	4G	4.d	2a
.	4F#	.	.
.	.	8c	.
2GG;	2D;	2B;	2g;
==	==	==	==
*-	*-	*-	*-
!!!YOR1: 371 vierstimmige Choralges&auml;nge von Johann Sebastian Bach, 
!!!YOR2: 4th ed. by Alfred D&ouml;rffel (Leipzig: Breitkopf und H&auml;rtel, 
!!!YOR2: c.1875). 178 pp. Plate "V.A.10".  reprint: J.S. Bach, 371 Four-Part 
!!!YOR4: Chorales (New York: Associated Music Publishers, Inc., c.1940).
!!!SMS: B&H, 4th ed, Alfred D&ouml;rffel, c.1875, plate V.A.10
!!!EED:  Craig Stuart Sapp
!!!EEV:  2009/05/22
